X:115
T: Bill McEvoy's Fancy (with piano acc.)
C: BB
R: hornpipe
Q: 320
M: 4/4
L: 1/8
V: 1 program 1 110 %fiddle
V: 2 bass volume = 50 m=D clef=bass program 1 00
K: D
[V:1] de |"D"f2 ed A2 AB|"A"cA"G"BG "Em"EF"D"DE|"D"FAde fede|fagf "A"e2 de |
[V:2] z2|D,2[A2D2F2]F,,2[A2D2F2]|A,,2[G,2D,2B,2]E,,2[A2D2F2]|D,2[A2D2F2]A,,2[A2D2F2]|D,2[A2D2F2]A,,2[A2C2E2]|
%
[V:1] "D"faef "G"dcBc|"Bm"dBAF "Em"EFDE |"D"FABA "Bm"FDB,D|"D"FA"A"GE "D"D2 :|
[V:2] D,2[A2D2F2]G,,2[G2D2B2]|B,,2[F2D2B2]E,2[E2G2B2]|D,2[A2D2F2]F,,2[F2D2B2]|\
D,,2[A,,2C2E,2][A,2D,2F2] :|
%
[V:1] DF |"D"ADFA d2 cd | "A"eAce "Bm"f2 fg |"D"af"Em"ge "Bm"fdcd |"Em"edcB "A"A2 FG |
[V:2] z2|D,2[A2D2F2]F,,2[A2D2F2]|A,,2[A2C2E2]B,,2[F2D2B2]|D,2[E2B,2G,2]B,,2[F2D2B2]|E,2[E2G2B2]A,,2[A2C2E2]|
%
[V:1] "D"ADFA d2 cd |"A"eAce "Bm"f2 fg |"Bm7"abaf "G"gdBd|"A"ceAc "D"d2 :|
[V:2] D,2[A2D2F2]F,,2[A2D2F2]|A,,2[A2C2E2]B,,2[F2D2B2]|B,,2[F,2A,2D2]G,,2[G2D2B2]|A,,2[A2C2E2][D,,2A,,2F,2]:|

%%%%%%%%%%%%%%%%%%%%%%%%

